!!!COM: Palestrina, Giovanni Perluigi da
!!!OPR: Missa Je suis desheritee
!!!OTL: Kyrie
**kern	**kern	**kern	**kern
*Ibass	*Itenor	*Icalto	*Icant
!Bassus	!Tenor	!Altus	!Cantus
*clefF4	*clefGv2	*clefG2	*clefG2
*k[b-]	*k[b-]	*k[b-]	*k[b-]
*D:aeo	*D:aeo	*D:aeo	*D:aeo
*M4/2	*M4/2	*M4/2	*M4/2
=1	=1	=1	=1
1A	1r	0r	0r
2A	1A	.	.
2A	.	.	.
=2	=2	=2	=2
2.c	2A	1r	0r
.	2A	.	.
4B-	.	.	.
4A	1c	1a	.
4G	.	.	.
4F	.	.	.
4E	.	.	.
=3	=3	=3	=3
1D	1d	2a	1a
.	.	2a	.
1r	[1A	2.cc	2a
.	.	.	2a
.	.	4b-	.
=4	=4	=4	=4
2r	1A]	4a	1cc
.	.	4g	.
2A	.	4f	.
.	.	4e	.
2B-	1r	2.d	1dd
2G	.	.	.
.	.	4e	.
=5	=5	=5	=5
2F	2r	1f	0a
4D	2f	.	.
4E	.	.	.
4F	2f	1c	.
4G	.	.	.
4A	2f	.	.
4F	.	.	.
=6	=6	=6	=6
2G	2e	2r	0r
2F	1d	2a	.
2G	.	2b-	.
2E	2c#	2g	.
=7	=7	=7	=7
2D	4d	2f	2r
.	4e	.	.
2d	4f	4d	2ff
.	4g	4e	.
2d	2a	4f	2ff
.	.	4g	.
2d	2f	4a	2ff
.	.	4b-	.
=8	=8	=8	=8
2c	1g	2cc	2ee
2G	.	2b-	1dd
1A	1e	1a	.
.	.	.	2cc#
=9	=9	=9	=9
0D	2r	2r	1dd
.	2d	2f	.
.	2d	2f	[1a
.	2d	2f	.
=10	=10	=10	=10
0A	2c	2e	0a]
.	2f	1d	.
.	1e	.	.
.	.	2c#	.
=11	=11	=11	=11
2.D	1a	4d	1ff
.	.	4e	.
.	.	4f	.
4E	.	4g	.
4F	2a	4a	2ff
4G	.	4b-	.
4A	2a	[2cc	2ff
4B-	.	.	.
=12	=12	=12	=12
2c	2g	2cc]	2ee
2d	2f	2b-	1dd
1A	1e	1a	.
.	.	.	2cc#
=13	=13	=13	=13
0D	0d	0a	0dd
=14	=14	=14	=14
0r	0r	1.f	1r
.	.	.	[1cc
.	.	2f	.
=15	=15	=15	=15
0r	0r	4a	2cc]
.	.	4b-	.
.	.	4cc	2cc
.	.	4a	.
.	.	2b-	2dd
.	.	2a	[2ff
=16	=16	=16	=16
1r	1.c	1g	2ff]
.	.	.	2ee
[1F	.	1f	[1ff
.	2c	.	.
=17	=17	=17	=17
2F]	2d	2r	1ff]
2F	1f	1c	.
4A	.	.	1r
4B-	.	.	.
4c	2e	2c	.
4A	.	.	.
=18	=18	=18	=18
2B-	2d	2d	0r
2A	2c	1f	.
1G	2.B-	.	.
.	.	2e	.
.	4c	.	.
=19	=19	=19	=19
1.F	2d	2f	2r
.	4c	1a	1cc
.	4B-	.	.
.	4A	.	.
.	4B-	.	.
2E	[2c	2g	2cc
=20	=20	=20	=20
1D	2c]	2f	1ff
.	2B-	2d	.
2C	2c	1g	2ee
2G	2B-	.	[2dd
=21	=21	=21	=21
1A	1c	2e	4dd]
.	.	.	4cc
.	.	2f	1cc
1G	1d	1g	.
.	.	.	2b
=22	=22	=22	=22
2r	1c	2r	0cc
2C	.	2g	.
2.F	2r	2a	.
.	2c	2a	.
4E	.	.	.
=23	=23	=23	=23
2D	2.f	1a	2r
2A	.	.	2cc
.	4e	.	.
2B-	2d	[1f	2.ff
2A	2c	.	.
.	.	.	4ee
=24	=24	=24	=24
1B-	2d	2f]	2dd
.	2B-	2d	2dd
2A	2c	2e	2cc
4G	2d	[2f	4b-
4F	.	.	4a
=25	=25	=25	=25
0G	0B-	2f]	0b-
.	.	4e	.
.	.	4d	.
.	.	1e	.
=26	=26	=26	=26
0F	0c	0f	0a
=27	=27	=27	=27
1A	0r	0r	0r
2A	.	.	.
2A	.	.	.
=28	=28	=28	=28
2.F	2r	0r	0r
.	2a	.	.
4G	.	.	.
4A	2a	.	.
4B-	.	.	.
2c	2a	.	.
=29	=29	=29	=29
2d	2.f	0r	1a
1f	.	.	.
.	4e	.	.
.	2d	.	2a
2e	2c#	.	2a
=30	=30	=30	=30
1d	2d	1a	2.f
.	1f	.	.
.	.	.	4g
1A	.	2a	4a
.	.	.	4b-
.	[2e	2a	2cc
=31	=31	=31	=31
1B-	4e]	2.f	2dd
.	4d	.	.
.	1d	.	1ff
.	.	4g	.
1A	.	4a	.
.	.	4b-	.
.	2c	2cc	[2ee
=32	=32	=32	=32
2B-	2f	1b-	4ee]
.	.	.	4dd
2G	2g	.	1dd
1A	1e	1a	.
.	.	.	2cc#
=33	=33	=33	=33
2r	2d	2r	1dd
2d	2f	2a	.
2d	2f	2a	1r
2c#	[2e	2a	.
=34	=34	=34	=34
1d	2e]	1f	1a
.	1d	.	.
1A	.	1e	2a
.	2c#	.	2a
=35	=35	=35	=35
2.D	2d	2r	2.f
.	2f	2a	.
4E	.	.	4g
4F	2f	2a	4a
4G	.	.	4b-
2A	2e	2a	2cc
=36	=36	=36	=36
2D	2.d	2.f	2dd
1d	.	.	1ff
.	4e	4g	.
.	2f	4a	.
.	.	4b-	.
2c	[2g	2cc	[2ee
=37	=37	=37	=37
2G	4g]	2b-	4ee]
.	4f	.	4dd
2B-	2d	2g	1dd
1A	1e	1a	.
.	.	.	2cc#
=38	=38	=38	=38
0D	0d	0a	0dd
==	==	==	==
*-	*-	*-	*-
!!!CDT: 1525/^1526/-1594/2/2
!!!OCY: Italia
!!!AGN: Mass (Parody)
!!!AST: renaissance, vocal
!!!ASW: Chanson 1533 (Lupi or Cadéac)
!!!PWK: Masses, Book 6
!!!RNB: Cadence finals: F
!!!YOR: Le Opere Complete, v. 21, p. 52
!!!YOO: Rome, Italy: Fratelli Scalera
!!!END: 1992//
!!!EED: John Miller
!!!YEC: Copyright 2000, John Miller
!!!YEN: United States of America
!!!YEM: Rights to all derivative electronic formats reserved.
!!!YEM: Refer to licensing agreement for further details.
!!!YEM: This file must be accompanied by the licensing agreement.
!!!YEM: A copy of the licensing agreement may be found at http://www.music-cog.ohio-state.edu/HumdrumDatabases/Palestrina/license.txt
!!!EMD: converted to Humdrum by Bret Aarden
